X:1
T:Title
%%score { 1 | 2 }
L:1/8
Q:1/4=100
M:6/8
K:Eb
V:1 treble nm="Grand Piano"
V:2 bass 
V:1
 GGG GFE | G>BB .B3 | [GB][Ac][B,EG] .[B,GB]3 | [GB][Ac][EG] .[GB]3 | GGG GFE | %5
w: John~R.~Bryant * * * * *|||||
[M:13/16] G>BBB-<B[Ec]3/2 | [EB].[EG]3/2 z [DF][DG][DF] |[M:3/4] E6 | ee ee ce | %9
w: ||||
 [Ge]>[Ge] [Ge] .[GB]3 | BB Bc BG | [DG][DF] [DF] .[DF]3 | GG GG FE |[M:13/16] G>BBB-<B[Ec]3/2 | %14
w: |||||
 [EB].[B,EG]3/2 z [A,DF][B,DG][A,DF] |[M:3/4] [G,E]6 |] %16
w: ||
V:2
 [E,B,E][E,B,E][E,B,E] [E,B,E][E,A,E][E,G,] | [E,B,E]>[E,G,E][E,G,E] .[E,G,E]3 | %2
 [E,E][E,E]E, .E,3 | E,E,E, .E,3 | [E,B,E][E,B,E][E,B,E] [E,B,E][E,A,E][E,G,] | %5
[M:13/16] [E,B,E]>[E,G,E][E,G,E][E,G,E]-<[E,G,E][A,,A,]3/2 | %6
 [B,,G,].[B,,B,]3/2 z [B,,A,][B,,B,][B,,A,] |[M:3/4] [E,G,]6 | %8
 [A,CA][A,CA] [A,CA][A,CA] [A,EA][A,CA] | [E,B,]>[E,B,] [E,B,] .[E,B,]3 | %10
 [E,G,E][E,G,E] [E,G,E][E,A,E] [E,G,E][E,B,E] | [B,,B,][B,,B,] [B,,B,] .[B,,B,]3 | %12
 [E,B,E][E,B,E] [E,B,E][E,B,E] [E,A,E][E,G,] | %13
[M:13/16] [E,B,E]>[E,G,E][E,A,E][E,G,E]-<[E,G,E][A,,A,]3/2 | [B,,G,].B,,3/2 z B,,B,,B,, | %15
[M:3/4] E,6 |] %16

